static/img/kroki/ecb883c313249c52f05eb8986178a7b3.svg

<?xml version="1.0" encoding="us-ascii" standalone="no"?><svg xmlns="http://www.w3.org/2000/svg" xmlns:xlink="http://www.w3.org/1999/xlink" contentStyleType="text/css" height="374px" preserveAspectRatio="none" style="width:333px;height:374px;" version="1.1" viewBox="0 0 333 374" width="333px" zoomAndPan="magnify"><defs/><g><!--class digitalocean_image--><g id="elem_digitalocean_image"><rect codeLine="23" fill="#3D176E" height="39.7891" id="digitalocean_image" rx="2.5" ry="2.5" style="stroke:#000D19;stroke-width:0.5;" width="204" x="7" y="328.58"/><ellipse cx="22" cy="348.4745" fill="#ADD1B2" rx="11" ry="11" style="stroke:#181818;stroke-width:1.0;"/><path d="M24.9688,354.1152 Q24.3906,354.412 23.75,354.5527 Q23.1094,354.7089 22.4063,354.7089 Q19.9063,354.7089 18.5781,353.0683 Q17.2656,351.412 17.2656,348.287 Q17.2656,345.162 18.5781,343.5058 Q19.9063,341.8495 22.4063,341.8495 Q23.1094,341.8495 23.75,342.0058 Q24.4063,342.162 24.9688,342.4589 L24.9688,345.1777 Q24.3438,344.5995 23.75,344.3339 Q23.1563,344.0527 22.5313,344.0527 Q21.1875,344.0527 20.5,345.1308 Q19.8125,346.1933 19.8125,348.287 Q19.8125,350.3808 20.5,351.4589 Q21.1875,352.5214 22.5313,352.5214 Q23.1563,352.5214 23.75,352.2558 Q24.3438,351.9745 24.9688,351.3964 L24.9688,354.1152 Z " fill="#000000"/><text fill="#D9B8FF" font-family="Helvetica" font-size="17" lengthAdjust="spacing" textLength="162" x="41" y="354.3598">digitalocean_image</text></g><!--class digitalocean_resource--><g id="elem_digitalocean_resource"><rect codeLine="26" fill="#3D176E" height="39.7891" id="digitalocean_resource" rx="2.5" ry="2.5" style="stroke:#000D19;stroke-width:0.5;" width="223" x="103.5" y="167.79"/><ellipse cx="118.5" cy="187.6845" fill="#ADD1B2" rx="11" ry="11" style="stroke:#181818;stroke-width:1.0;"/><path d="M121.4688,193.3252 Q120.8906,193.622 120.25,193.7627 Q119.6094,193.9189 118.9063,193.9189 Q116.4063,193.9189 115.0781,192.2783 Q113.7656,190.622 113.7656,187.497 Q113.7656,184.372 115.0781,182.7158 Q116.4063,181.0595 118.9063,181.0595 Q119.6094,181.0595 120.25,181.2158 Q120.9063,181.372 121.4688,181.6689 L121.4688,184.3877 Q120.8438,183.8095 120.25,183.5439 Q119.6563,183.2627 119.0313,183.2627 Q117.6875,183.2627 117,184.3408 Q116.3125,185.4033 116.3125,187.497 Q116.3125,189.5908 117,190.6689 Q117.6875,191.7314 119.0313,191.7314 Q119.6563,191.7314 120.25,191.4658 Q120.8438,191.1845 121.4688,190.6064 L121.4688,193.3252 Z " fill="#000000"/><text fill="#D9B8FF" font-family="Helvetica" font-size="17" lengthAdjust="spacing" textLength="181" x="137.5" y="193.5698">digitalocean_resource</text></g><!--class resource--><g id="elem_resource"><rect codeLine="29" fill="#3D176E" height="39.7891" id="resource" rx="2.5" ry="2.5" style="stroke:#000D19;stroke-width:0.5;" width="113" x="29.5" y="7"/><ellipse cx="44.5" cy="26.8945" fill="#ADD1B2" rx="11" ry="11" style="stroke:#181818;stroke-width:1.0;"/><path d="M47.4688,32.5352 Q46.8906,32.832 46.25,32.9727 Q45.6094,33.1289 44.9063,33.1289 Q42.4063,33.1289 41.0781,31.4883 Q39.7656,29.832 39.7656,26.707 Q39.7656,23.582 41.0781,21.9258 Q42.4063,20.2695 44.9063,20.2695 Q45.6094,20.2695 46.25,20.4258 Q46.9063,20.582 47.4688,20.8789 L47.4688,23.5977 Q46.8438,23.0195 46.25,22.7539 Q45.6563,22.4727 45.0313,22.4727 Q43.6875,22.4727 43,23.5508 Q42.3125,24.6133 42.3125,26.707 Q42.3125,28.8008 43,29.8789 Q43.6875,30.9414 45.0313,30.9414 Q45.6563,30.9414 46.25,30.6758 Q46.8438,30.3945 47.4688,29.8164 L47.4688,32.5352 Z " fill="#000000"/><text fill="#D9B8FF" font-family="Helvetica" font-size="17" lengthAdjust="spacing" textLength="71" x="63.5" y="32.7798">resource</text></g><!--reverse link digitalocean_resource to digitalocean_image--><g id="link_digitalocean_resource_digitalocean_image"><path codeLine="32" d="M192.2175,222.8116 C171.8475,253.3316 142.23,297.69 121.83,328.25 " fill="none" id="digitalocean_resource-backto-digitalocean_image" style="stroke:#FFAF37;stroke-width:2.0;"/><polygon fill="none" points="202.21,207.84,187.2269,219.4808,197.208,226.1425,202.21,207.84" style="stroke:#FFAF37;stroke-width:2.0;"/></g><!--reverse link resource to digitalocean_image--><g id="link_resource_digitalocean_image"><path codeLine="33" d="M84.1438,65.0706 C82.6138,97.9706 81.24,149.28 86,207.58 C89.55,251 99.18,301.26 104.79,328.14 " fill="none" id="resource-backto-digitalocean_image" style="stroke:#FFAF37;stroke-width:2.0;"/><polygon fill="none" points="84.98,47.09,78.1503,64.7918,90.1373,65.3493,84.98,47.09" style="stroke:#FFAF37;stroke-width:2.0;"/></g><!--reverse link resource to digitalocean_resource--><g id="link_resource_digitalocean_resource"><path codeLine="34" d="M112.9086,61.0217 C137.6986,91.5417 174.56,136.9 199.38,167.46 " fill="none" id="resource-backto-digitalocean_resource" style="stroke:#FFAF37;stroke-width:2.0;"/><polygon fill="none" points="101.56,47.05,108.2514,64.8046,117.5658,57.2389,101.56,47.05" style="stroke:#FFAF37;stroke-width:2.0;"/></g><!--SRC=[fT0zJyCm40RWtR_2KkT82HMaaLZQI0YM2b5sT8dFYPN4ZiuELVduxn1AaPkaxS1wxoFVUowLG8vDwtQymIP3iinMIhT0qF0baTccfZR4PrA2dCV3yCveTn6ieK5-Z_KhEfN3K3oNAgyqMikll6W5ULMGwRJOF-y8jFsEK3jFfJLOktIELDOvzCg895j8EPJ3HsTp4SKtE6A61D8l2SDGHCcGN5nrzku_iL5lo2F_qzR6uQZcQCMFEjko5rx9qQ67_6J7Hn12wO9VUxEdVIVII4VpJGd2R7ijeRR-6kkGqBXTY-deAamMGiQJ-E4KPdd_TLoeGZceJOwWNrG31V9tnZwdKa9hEigFmF5icjz-144miOZzJnmozWK0]--></g></svg>

<svg xmlns="http://www.w3.org/2000/svg" width="333" height="374" viewBox="0 0 333 374"><rect width="204" height="39.789" x="7" y="328.58" fill="#3D176E" rx="2.5" ry="2.5" style="stroke:#000d19;stroke-width:.5"/><circle cx="22" cy="348.474" r="11" fill="#ADD1B2" style="stroke:#181818;stroke-width:1"/><path d="M24.969 354.115q-.578.297-1.219.438-.64.156-1.344.156-2.5 0-3.828-1.64-1.312-1.657-1.312-4.782t1.312-4.781q1.328-1.656 3.828-1.656.703 0 1.344.156.656.156 1.219.453v2.719q-.625-.579-1.219-.844-.594-.281-1.219-.281-1.343 0-2.031 1.078-.687 1.062-.687 3.156t.687 3.172q.688 1.062 2.031 1.062.625 0 1.219-.265.594-.281 1.219-.86z"/><text x="41" y="354.36" fill="#D9B8FF" font-family="Helvetica" font-size="17" textLength="162">digitalocean_image</text><rect width="223" height="39.789" x="103.5" y="167.79" fill="#3D176E" rx="2.5" ry="2.5" style="stroke:#000d19;stroke-width:.5"/><circle cx="118.5" cy="187.685" r="11" fill="#ADD1B2" style="stroke:#181818;stroke-width:1"/><path d="M121.469 193.325q-.578.297-1.219.438-.64.156-1.344.156-2.5 0-3.828-1.64-1.312-1.657-1.312-4.782t1.312-4.781q1.328-1.656 3.828-1.656.703 0 1.344.156.656.156 1.219.453v2.719q-.625-.578-1.219-.844-.594-.281-1.219-.281-1.344 0-2.031 1.078-.687 1.062-.687 3.156t.687 3.172q.688 1.062 2.031 1.062.625 0 1.219-.265.594-.281 1.219-.86z"/><text x="137.5" y="193.57" fill="#D9B8FF" font-family="Helvetica" font-size="17" textLength="181">digitalocean_resource</text><rect width="113" height="39.789" x="29.5" y="7" fill="#3D176E" rx="2.5" ry="2.5" style="stroke:#000d19;stroke-width:.5"/><circle cx="44.5" cy="26.895" r="11" fill="#ADD1B2" style="stroke:#181818;stroke-width:1"/><path d="M47.469 32.535q-.578.297-1.219.438-.64.156-1.344.156-2.5 0-3.828-1.64-1.312-1.657-1.312-4.782t1.312-4.781q1.328-1.656 3.828-1.656.703 0 1.344.156.656.156 1.219.453v2.719q-.625-.578-1.219-.844-.594-.281-1.219-.281-1.343 0-2.031 1.078-.687 1.062-.687 3.156T43 29.879q.688 1.062 2.031 1.062.625 0 1.219-.265.594-.281 1.219-.86z"/><text x="63.5" y="32.78" fill="#D9B8FF" font-family="Helvetica" font-size="17" textLength="71">resource</text><path fill="none" d="M192.218 222.812c-20.37 30.52-49.988 74.878-70.388 105.438m80.38-120.41-14.983 11.64 9.981 6.663z" style="stroke:#ffaf37;stroke-width:2"/><g fill="none"><path d="M84.144 65.07c-1.53 32.9-2.904 84.21 1.856 142.51 3.55 43.42 13.18 93.68 18.79 120.56" style="stroke:#ffaf37;stroke-width:2"/><path d="m84.98 47.09-6.83 17.702 11.987.557z" style="stroke:#ffaf37;stroke-width:2"/></g><path fill="none" d="M112.909 61.022c24.79 30.52 61.651 75.878 86.471 106.438M101.56 47.05l6.691 17.755 9.315-7.566z" style="stroke:#ffaf37;stroke-width:2"/></svg>
